packages/kaspersky-hexa-ui-icons/src/iconsSVGs/24/Cablebox.svg

<svg width="24" height="24" viewBox="0 0 24 24" fill="none" xmlns="http://www.w3.org/2000/svg">
<path d="M10 6C10 6.55228 9.55228 7 9 7C8.44772 7 8 6.55228 8 6C8 5.44772 8.44772 5 9 5C9.55228 5 10 5.44772 10 6Z" fill="black"/>
<path d="M12 7C12.5523 7 13 6.55228 13 6C13 5.44772 12.5523 5 12 5C11.4477 5 11 5.44772 11 6C11 6.55228 11.4477 7 12 7Z" fill="black"/>
<path d="M16 6C16 6.55228 15.5523 7 15 7C14.4477 7 14 6.55228 14 6C14 5.44772 14.4477 5 15 5C15.5523 5 16 5.44772 16 6Z" fill="black"/>
<path d="M9 10C9.55228 10 10 9.55228 10 9C10 8.44772 9.55228 8 9 8C8.44772 8 8 8.44772 8 9C8 9.55228 8.44772 10 9 10Z" fill="black"/>
<path d="M13 9C13 9.55228 12.5523 10 12 10C11.4477 10 11 9.55228 11 9C11 8.44772 11.4477 8 12 8C12.5523 8 13 8.44772 13 9Z" fill="black"/>
<path d="M15 10C15.5523 10 16 9.55228 16 9C16 8.44772 15.5523 8 15 8C14.4477 8 14 8.44772 14 9C14 9.55228 14.4477 10 15 10Z" fill="black"/>
<path d="M16 12C16 12.5523 15.5523 13 15 13C14.4477 13 14 12.5523 14 12C14 11.4477 14.4477 11 15 11C15.5523 11 16 11.4477 16 12Z" fill="black"/>
<path d="M12 13C12.5523 13 13 12.5523 13 12C13 11.4477 12.5523 11 12 11C11.4477 11 11 11.4477 11 12C11 12.5523 11.4477 13 12 13Z" fill="black"/>
<path d="M9 11C9.55228 11 10 11.4477 10 12V14C10 14.5523 9.55228 15 9 15C8.44772 15 8 14.5523 8 14V12C8 11.4477 8.44772 11 9 11Z" fill="black"/>
<path d="M14.469 14.4998C14.469 13.9475 14.0213 13.4998 13.469 13.4998C12.9167 13.4998 12.469 13.9475 12.469 14.4998V15.4998H11.469C10.9167 15.4998 10.469 15.9475 10.469 16.4998C10.469 17.0521 10.9167 17.4998 11.469 17.4998H12.469V18.4998C12.469 19.0521 12.9167 19.4998 13.469 19.4998C14.0213 19.4998 14.469 19.0521 14.469 18.4998V17.4998H15.469C16.0213 17.4998 16.469 17.0521 16.469 16.4998C16.469 15.9475 16.0213 15.4998 15.469 15.4998H14.469V14.4998Z" fill="black"/>
<path fill-rule="evenodd" clip-rule="evenodd" d="M5 5C5 3.34315 6.34315 2 8 2H16C17.6569 2 19 3.34315 19 5V19C19 20.6569 17.6569 22 16 22H8C6.34315 22 5 20.6569 5 19V5ZM8 4C7.44772 4 7 4.44772 7 5V19C7 19.5523 7.44772 20 8 20H16C16.5523 20 17 19.5523 17 19V5C17 4.44772 16.5523 4 16 4H8Z" fill="black"/>
</svg>

<svg xmlns="http://www.w3.org/2000/svg" width="24" height="24" fill="none" viewBox="0 0 24 24"><path fill="#000" fill-rule="evenodd" d="M5 5c0-1.6569 1.3431-3 3-3h8c1.6569 0 3 1.3431 3 3v14c0 1.6569-1.3431 3-3 3H8c-1.6569 0-3-1.3431-3-3zm3-1c-.5523 0-1 .4477-1 1v14c0 .5523.4477 1 1 1h8c.5523 0 1-.4477 1-1V5c0-.5523-.4477-1-1-1zm2 2c0 .5523-.4477 1-1 1s-1-.4477-1-1 .4477-1 1-1 1 .4477 1 1m2 1c.5523 0 1-.4477 1-1s-.4477-1-1-1-1 .4477-1 1 .4477 1 1 1m4-1c0 .5523-.4477 1-1 1s-1-.4477-1-1 .4477-1 1-1 1 .4477 1 1m-7 4c.5523 0 1-.4477 1-1s-.4477-1-1-1-1 .4477-1 1 .4477 1 1 1m4-1c0 .5523-.4477 1-1 1s-1-.4477-1-1 .4477-1 1-1 1 .4477 1 1m2 1c.5523 0 1-.4477 1-1s-.4477-1-1-1-1 .4477-1 1 .4477 1 1 1m-5 2c0-.5523-.4477-1-1-1s-1 .4477-1 1v2c0 .5523.4477 1 1 1s1-.4477 1-1zm2 1c.5523 0 1-.4477 1-1s-.4477-1-1-1-1 .4477-1 1 .4477 1 1 1m4-1c0 .5523-.4477 1-1 1s-1-.4477-1-1 .4477-1 1-1 1 .4477 1 1m-2.531 1.4998c.5523 0 1 .4477 1 1v1h1c.5523 0 1 .4477 1 1s-.4477 1-1 1h-1v1c0 .5523-.4477 1-1 1s-1-.4477-1-1v-1h-1c-.5523 0-1-.4477-1-1s.4477-1 1-1h1v-1c0-.5523.4477-1 1-1"/></svg>
